src/assets/images/left-panel/Sales-Order.svg

<?xml version="1.0" encoding="UTF-8"?>
<!DOCTYPE svg  PUBLIC '-//W3C//DTD SVG 1.1//EN'  'http://www.w3.org/Graphics/SVG/1.1/DTD/svg11.dtd'>
<svg enable-background="new 0 0 297 297" version="1.1" viewBox="0 0 297 297" xml:space="preserve" xmlns="http://www.w3.org/2000/svg">
	<polygon points="96.034 290.88 96.034 235.48 40.63 235.48"/>
	<path d="m252.04 0h-207.07c-5.775 0-10.459 4.684-10.459 10.459v204.1h71.986c5.775 0 10.457 4.682 10.457 10.458v71.981h135.09c5.773 0 10.457-4.682 10.457-10.458v-276.08c0-5.775-4.684-10.459-10.457-10.459zm-172.56 51.764h86.279c5.773 0 10.463 4.688 10.463 10.457 0 5.777-4.689 10.465-10.463 10.465h-86.279c-5.777 0-10.457-4.688-10.457-10.465 0-5.769 4.679-10.457 10.457-10.457zm0 51.77h86.279c5.773 0 10.463 4.681 10.463 10.455 0 5.776-4.689 10.457-10.463 10.457h-86.279c-5.777 0-10.457-4.681-10.457-10.457 0-5.774 4.679-10.455 10.457-10.455zm0 72.681c-5.777 0-10.457-4.688-10.457-10.457 0-5.773 4.68-10.461 10.457-10.461h86.279c5.773 0 10.463 4.688 10.463 10.461 0 5.77-4.689 10.457-10.463 10.457h-86.279zm138.05 51.764h-34.51c-5.777 0-10.459-4.681-10.459-10.457 0-5.775 4.682-10.457 10.459-10.457h34.51c5.777 0 10.459 4.682 10.459 10.457 0 5.776-4.681 10.457-10.459 10.457zm0-51.764h-17.26c-5.768 0-10.459-4.688-10.459-10.457 0-5.773 4.691-10.461 10.459-10.461h17.26c5.777 0 10.459 4.688 10.459 10.461 0 5.769-4.681 10.457-10.459 10.457zm0-51.769h-17.26c-5.768 0-10.459-4.681-10.459-10.457 0-5.775 4.691-10.455 10.459-10.455h17.26c5.777 0 10.459 4.681 10.459 10.455 0 5.777-4.681 10.457-10.459 10.457zm0-51.76h-17.26c-5.768 0-10.459-4.688-10.459-10.465 0-5.769 4.691-10.457 10.459-10.457h17.26c5.777 0 10.459 4.688 10.459 10.457 0 5.777-4.681 10.465-10.459 10.465z"/>
</svg>

<?xml version="1.0" encoding="iso-8859-1"?>
<!-- Generator: Adobe Illustrator 18.0.0, SVG Export Plug-In . SVG Version: 6.00 Build 0)  -->
<!DOCTYPE svg PUBLIC "-//W3C//DTD SVG 1.1//EN" "http://www.w3.org/Graphics/SVG/1.1/DTD/svg11.dtd">
<svg version="1.1" id="Capa_1" xmlns="http://www.w3.org/2000/svg" xmlns:xlink="http://www.w3.org/1999/xlink" x="0px" y="0px"
	 viewBox="0 0 297 297" style="enable-background:new 0 0 297 297;" xml:space="preserve">
	 <!-- <style type="text/css">
	 path{fill:#428BCA;}
	 </style> -->
<g>
	<polygon points="96.034,290.875 96.034,235.475 40.63,235.475 	"/>
	<path d="M252.038,0H44.964c-5.775,0-10.459,4.684-10.459,10.459v204.102h71.986c5.775,0,10.457,4.682,10.457,10.458V297h135.09
		c5.773,0,10.457-4.682,10.457-10.458V10.459C262.495,4.684,257.811,0,252.038,0z M79.476,51.764h86.279
		c5.773,0,10.463,4.688,10.463,10.457c0,5.777-4.689,10.465-10.463,10.465H79.476c-5.777,0-10.457-4.688-10.457-10.465
		C69.019,56.452,73.698,51.764,79.476,51.764z M79.476,103.534h86.279c5.773,0,10.463,4.681,10.463,10.455
		c0,5.776-4.689,10.457-10.463,10.457H79.476c-5.777,0-10.457-4.681-10.457-10.457C69.019,108.215,73.698,103.534,79.476,103.534z
		 M79.476,176.215c-5.777,0-10.457-4.688-10.457-10.457c0-5.773,4.68-10.461,10.457-10.461h86.279
		c5.773,0,10.463,4.688,10.463,10.461c0,5.77-4.689,10.457-10.463,10.457H79.476z M217.524,227.979h-34.51
		c-5.777,0-10.459-4.681-10.459-10.457c0-5.775,4.682-10.457,10.459-10.457h34.51c5.777,0,10.459,4.682,10.459,10.457
		C227.983,223.298,223.302,227.979,217.524,227.979z M217.524,176.215h-17.26c-5.768,0-10.459-4.688-10.459-10.457
		c0-5.773,4.691-10.461,10.459-10.461h17.26c5.777,0,10.459,4.688,10.459,10.461C227.983,171.527,223.302,176.215,217.524,176.215z
		 M217.524,124.446h-17.26c-5.768,0-10.459-4.681-10.459-10.457c0-5.775,4.691-10.455,10.459-10.455h17.26
		c5.777,0,10.459,4.681,10.459,10.455C227.983,119.766,223.302,124.446,217.524,124.446z M217.524,72.686h-17.26
		c-5.768,0-10.459-4.688-10.459-10.465c0-5.769,4.691-10.457,10.459-10.457h17.26c5.777,0,10.459,4.688,10.459,10.457
		C227.983,67.998,223.302,72.686,217.524,72.686z"/>
</g>
<g>
</g>
<g>
</g>
<g>
</g>
<g>
</g>
<g>
</g>
<g>
</g>
<g>
</g>
<g>
</g>
<g>
</g>
<g>
</g>
<g>
</g>
<g>
</g>
<g>
</g>
<g>
</g>
<g>
</g>
</svg>
